icons/star_small.svg

<svg width="48" height="48" viewBox="0 0 48 48" fill="none" xmlns="http://www.w3.org/2000/svg">
<path fill-rule="evenodd" clip-rule="evenodd" d="M24 17.2222L22.4227 20.4067L20.6305 19.519L23.0827 14.5681C23.4579 13.8106 24.5421 13.8106 24.9173 14.5681L27.3695 19.519L25.5773 20.4067L24 17.2222ZM30.2222 26.4626C29.9811 26.6967 29.8711 27.0341 29.928 27.3647L30.8647 32.8062C31.008 33.6388 30.1309 34.2738 29.3805 33.8807L24.476 31.3115C24.178 31.1554 23.822 31.1554 23.524 31.3115L18.6195 33.8807C17.8691 34.2738 16.992 33.6388 17.1353 32.8062L18.072 27.3647C18.1289 27.0341 18.0189 26.6967 17.7778 26.4626L13.81 22.6089C13.2029 22.0193 13.5379 20.9919 14.3769 20.8704L19.8603 20.0765C20.1935 20.0283 20.4815 19.8198 20.6305 19.519L22.4227 20.4067C21.9808 21.2988 21.1287 21.9137 20.1469 22.0559L16.6348 22.5644L19.1713 25.0279L17.8609 26.377L19.1713 25.0279C19.8848 25.7209 20.2121 26.7216 20.043 27.704L19.4427 31.1917L22.596 29.5399C23.4752 29.0793 24.5248 29.0793 25.4041 29.5399L28.5573 31.1917L27.957 27.704C27.7879 26.7216 28.1152 25.7209 28.8287 25.0279L30.2222 26.4626ZM31.3652 22.5644L27.8531 22.0559C26.8713 21.9137 26.0192 21.2988 25.5773 20.4067L27.3695 19.519C27.5185 19.8198 27.8065 20.0283 28.1397 20.0765L33.6231 20.8704C34.4621 20.9919 34.7971 22.0193 34.19 22.6089L30.2222 26.4626L28.8287 25.0279L31.3652 22.5644Z" fill="black"/>
</svg>

<svg
  xmlns="http://www.w3.org/2000/svg"
  width="24"
  height="24"
  viewBox="0 0 24 24"
  fill="none"
  stroke="currentColor"
  stroke-width="2"
  stroke-linecap="round"
  stroke-linejoin="round"
>
  <path
    fill-rule="evenodd"
    d="m24 17.222-1.577 3.185-1.792-.888 2.452-4.95a1.025 1.025 0 0 1 1.834 0l2.452 4.95-1.792.888zm6.222 9.24a1.02 1.02 0 0 0-.294.903l.937 5.441c.143.833-.734 1.468-1.484 1.075l-4.905-2.57a1.03 1.03 0 0 0-.952 0l-4.905 2.57c-.75.393-1.627-.242-1.484-1.075l.937-5.441a1.02 1.02 0 0 0-.294-.902l-3.968-3.854a1.018 1.018 0 0 1 .567-1.739l5.483-.794c.334-.048.622-.256.77-.557l1.793.888a3.02 3.02 0 0 1-2.276 1.649l-3.512.508 2.536 2.464-1.31 1.349 1.31-1.35a3.02 3.02 0 0 1 .872 2.677l-.6 3.488 3.153-1.652c.88-.46 1.929-.46 2.808 0l3.153 1.652-.6-3.488a3.02 3.02 0 0 1 .872-2.676zm1.143-3.898-3.512-.508a3.02 3.02 0 0 1-2.276-1.65l1.792-.887c.15.3.438.51.77.558l5.484.793a1.018 1.018 0 0 1 .567 1.739l-3.968 3.854-1.393-1.435z"
    clip-rule="evenodd"
  />
</svg>
